X:3
T:Klettgauer-Schottisch EbBb (5letras) cf. CG
M:2/4
L:1/16
K:Ebmaj%%MIDI gchordon
"Eb"b3=a be'g2 | "Bb7"a2d2 {e}dcd2 | a3g ad'f2 | "Eb"c'2e2 {f}ede2 | b3=a be'g2 | "Bb7"b2d2 {e}dcd2 | a3g ac'd2 | "Eb"e2g2 e2z2 ::
"Eb"efg2 "Bb7"fga2 | "Eb"gab2b4 | "Bb7"fga2 !>!a4 | "Eb"efg2 !>!g4 | efg2 "Bb7"fga2 | "Eb"gab2 "Ab"a2c'2 | "Eb"b3b "Bb7"bagf | "Eb"e2e2 e2z2 :: [K:Bbmaj] 
"Bb"ffff d'2f2 | "Eb"g3e' "Bb"d'2de | ffff d'2f2 | "F7"e3c' "Bb"b2de | ffff d'2f2 | "Eb"g3e' "Bb"d'2b2 | ffff "F7"e'2d'c' | "Bb"b2b2 b2z2 :| 

